X:366
%%etbk:tnset id:497,pos:2,rep:3x,ant:
%%etbk:wsite http://www.trad.katesplacedoolin.com/tunes/shandonbells.html
%%etbk:pldat 2016-06-12T13:31,2016-03-22T16:12,2016-01-01T15:31,2015-12-27T14:06,2015-12-24T15:26,2015-12-22T16:19,2015-03-23T18:54,2014-12-30T18:18,2014-09-16T18:58,2014-09-11T18:52,2014-07-05T14:10,2014-06-15T14:10,2014-05-21T19:20,2014-05-19T19:19,2014-05-14T16:24,2014-05-13T18:26,2014-05-12T18:45,2014-05-11T13:03,2014-05-08T18:12,2014-05-07T18:08,2014-05-05T18:37,2014-05-02T16:34,2014-05-01T19:30,2013-12-17T17:13,2013-12-06T16:10,2013-11-26T16:08,2013-10-05T15:28,2013-10-04T15:17,2013-10-03T18:59,2013-10-02T15:19,2013-09-29T15:57,2013-05-14T17:56,2013-05-07T18:46,2013-04-30T16:37
T:Shandon Bells
Z: Piano Box Version by Martin Fleischmann
H: Created 2013-02-19 /  Last Modified 2013-03-24
R:Jig
M:6/8
L:1/8
K: Dmaj
|: "D"!4!A!2!F!1!D !1!D!2!F!1!A | !4!ded !3!cB!1!A | "A"!4!B!2!G!1!E !1!E!2!F!3!A | !4!B2!1!A !2!Bc!4!d |
"D"!1!A!2!F!1!D !1!D!2!F!1!A | !4!ded !3!cB!1!A | "A"!2!Bcd !5!e!3!c!1!A |1 "D"!3!dfe !3!d2!2!B:|2 "D"!3!dfe !3!d2!4!e||
|: "D"!3!f2d !1!d!2!c!1!d | !3!f2!5!a !5!af!1!d | "A"!3!c!1!AA !5!e!1!AA | !3!cAc !5!e!3!f!4!g |
"D"!3!f2d !1!d!2!c!1!d | !3!f2!5!a !5!af!1!d | "A"!2!Bcd !5!ec!1!A |1 "D"!3!dfe !3!d2!4!e:|2 "D"!3!dfe !3!d2!2!B||


